X: 1
T: Gasp\'e Reel
O: Qu\'ebec 1929
D: Isidore Soucy (fiddle) & Donat Lafleur (accordion) "Quadrille du peuple 1\`ere partie" Starr 15532 A 1929.
F: http://www.collectionscanada.ca/obj/m2/f7/15992.mp3 (with 3rd part from Mony Musk)
Z: 2014 John Chambers <jc:trillian.mit.edu>
N: At this time, the Soucy/Lafleur recording is the earliest known version of this tune.
M: 4/4
K: D
|: f2ef e2d2 | F2A2 B2A2 | g2fg f2e2 | BABc B2A2 |
|  f2ef e2d2 | F2A2 B2A2 | g2fg f2e2 | B2c2 d4  :|
|: e2f2 g2e2 | d2e2 f4   | e2f2 g2e2 | BABc B2A2 |
|  e2f2 g2e2 | d2e2 f4   | e2f2 g2e2 | B2c2 d4  :|
